; G-Code generated by Simplify3D(R) Version 3.0.2
; Mar 3, 2016 at 6:46:04 PM
; Settings Summary
;   processName,Process1
;   applyToModels,555Holder
;   profileName,FlashForge Dreamer (modified)
;   profileVersion,2016-03-02 13:32:22
;   baseProfile,
;   printMaterial,ABS
;   printQuality,Fast
;   printExtruders,Right Extruder Only
;   extruderName,Right Extruder,Left Extruder
;   extruderToolheadNumber,0,1
;   extruderDiameter,0.4,0.4
;   extruderAutoWidth,0,0
;   extruderWidth,0.4,0.4
;   extrusionMultiplier,1,1
;   extruderUseRetract,1,1
;   extruderRetractionDistance,1,1
;   extruderExtraRestartDistance,0,0
;   extruderRetractionZLift,0,0
;   extruderRetractionSpeed,1200,1200
;   extruderUseCoasting,0,0
;   extruderCoastingDistance,0.2,0.2
;   extruderUseWipe,0,0
;   extruderWipeDistance,5,5
;   primaryExtruder,0
;   layerHeight,0.2
;   topSolidLayers,3
;   bottomSolidLayers,3
;   perimeterOutlines,3
;   printPerimetersInsideOut,1
;   startPointOption,2
;   startPointOriginX,0
;   startPointOriginY,0
;   startPointOriginZ,300
;   sequentialIslands,0
;   spiralVaseMode,0
;   firstLayerHeightPercentage,90
;   firstLayerWidthPercentage,125
;   firstLayerUnderspeed,0.35
;   useRaft,1
;   raftExtruder,0
;   raftLayers,3
;   raftOffset,3
;   raftSeparationDistance,0.14
;   raftInfill,85
;   disableRaftBaseLayers,0
;   useSkirt,0
;   skirtExtruder,0
;   skirtLayers,1
;   skirtOutlines,2
;   skirtOffset,4
;   usePrimePillar,0
;   primePillarExtruder,999
;   primePillarWidth,12
;   primePillarLocation,7
;   primePillarSpeedMultiplier,1
;   useOozeShield,0
;   oozeShieldExtruder,999
;   oozeShieldOffset,2
;   oozeShieldOutlines,1
;   oozeShieldSidewallShape,1
;   oozeShieldSidewallAngle,30
;   oozeShieldSpeedMultiplier,1
;   infillExtruder,0
;   internalInfillPattern,Rectilinear
;   externalInfillPattern,Rectilinear
;   infillPercentage,50
;   outlineOverlapPercentage,20
;   infillExtrusionWidthPercentage,200
;   minInfillLength,5
;   infillLayerInterval,1
;   infillAngles,45,-45
;   overlapInfillAngles,0
;   generateSupport,1
;   supportExtruder,0
;   supportInfillPercentage,30
;   supportExtraInflation,0
;   denseSupportLayers,0
;   denseSupportInfillPercentage,70
;   supportLayerInterval,1
;   supportHorizontalPartOffset,0.3
;   supportUpperSeparationLayers,1
;   supportLowerSeparationLayers,1
;   supportType,0
;   supportGridSpacing,4
;   maxOverhangAngle,40
;   supportAngles,0
;   temperatureName,Right Extruder,Heated Build Platform,Left Extruder
;   temperatureNumber,0,0,1
;   temperatureSetpointCount,1,1,1
;   temperatureSetpointLayers,1,1,1
;   temperatureSetpointTemperatures,230,105,0
;   temperatureStabilizeAtStartup,0,0,0
;   temperatureHeatedBed,0,1,0
;   temperatureRelayBetweenLayers,0,0,0
;   temperatureRelayBetweenLoops,0,0,0
;   fanLayers,1
;   fanSpeeds,0
;   blipFanToFullPower,0
;   adjustSpeedForCooling,1
;   minSpeedLayerTime,15
;   minCoolingSpeedSlowdown,20
;   increaseFanForCooling,0
;   minFanLayerTime,45
;   maxCoolingFanSpeed,100
;   increaseFanForBridging,1
;   bridgingFanSpeed,100
;   use5D,1
;   relativeEdistances,0
;   allowEaxisZeroing,0
;   independentExtruderAxes,1
;   includeM10123,0
;   stickySupport,1
;   applyToolheadOffsets,0
;   gcodeXoffset,0
;   gcodeYoffset,0
;   gcodeZoffset,0
;   overrideMachineDefinition,1
;   machineTypeOverride,0
;   strokeXoverride,230
;   strokeYoverride,150
;   strokeZoverride,140
;   originOffsetXoverride,115
;   originOffsetYoverride,75
;   originOffsetZoverride,0
;   homeXdirOverride,1
;   homeYdirOverride,1
;   homeZdirOverride,-1
;   flipXoverride,1
;   flipYoverride,-1
;   flipZoverride,1
;   toolheadOffsets,0,0|34,0|0,0|0,0|0,0|0,0
;   overrideFirmwareConfiguration,1
;   firmwareTypeOverride,FlashForge Dreamer Firmware
;   GPXconfigOverride,r2
;   baudRateOverride,115200
;   overridePrinterModels,1
;   printerModelsOverride,FlashForge_Dreamer.stl
;   startingGcode,M146 r255 g0 b0 ; Set lights to red while preheating,M907 X100 Y100 Z40 A100 B100 ; Set motor current,M132 X Y Z A B ; Recall home offsets,M612 X34.5 Y0.0 ; Set toolhead offsets,M108 T0 ; Change to right extruder,G28 ; Home axes,G1 Z100 F3300 ; Lower Z,G1 X-110.5 Y-74 F6000 ; Move to wait position,M7 ; Wait for bed to stabilize,M6 T0 ; Wait for right extruder to reach target temp,G1 X-100 Y-74 F9000 ; Move to front left corner of bed,G1 Z0.3 F6000 ; Move down to purge,G92 E0 ; Zero extruders,G1 X90 Y-74 E24 F2000 ; Extrude a line of filament across the front edge of the bed,G1 X100 Y-74 F180 ; Wait for ooze,G1 X110 Y-74 F5000 ; Fast wipe,G1 Z1 F100 ; Lift,G92 E0 ; Zero extruders again,M146 r255 g255 b255 ; Turn lights on for print,G1 Z0.5 F3300 ; Position nozzle
;   layerChangeGcode,
;   retractionGcode,
;   toolChangeGcode,
;   endingGcode,M140 S0 ; cool down HBP,M104 S0 T0 ; cool down right extruder,M104 S0 T1 ; cool down left extruder,G1 Z140 F3300 ; send Z axis to bottom of machine,M107 ; disable cooling fan,G28 X0 Y0 ; home XY axes,M146 r0 g0 b0 ; Turn lights off,M18 ; disable stepper
;   createX3G,0
;   celebration,0
;   celebrationSong,Star Wars
;   createMB5G,0
;   postProcessing,
;   defaultSpeed,3600
;   outlineUnderspeed,0.5
;   solidInfillUnderspeed,0.8
;   supportUnderspeed,0.8
;   rapidXYspeed,4200
;   rapidZspeed,1200
;   minBridgingArea,50
;   bridgingExtraInflation,0
;   bridgingExtrusionMultiplier,1
;   bridgingSpeedMultiplier,0.8
;   filamentDiameter,1.75
;   filamentPricePerKg,100
;   filamentDensity,1.2
;   useMinPrintHeight,0
;   minPrintHeight,0
;   useMaxPrintHeight,0
;   maxPrintHeight,0
;   useDiaphragm,0
;   diaphragmLayerInterval,20
;   robustSlicing,1
;   mergeAllIntoSolid,0
;   onlyRetractWhenCrossingOutline,1
;   retractBetweenLayers,1
;   useRetractionMinTravel,0
;   retractionMinTravel,3
;   retractWhileWiping,0
;   onlyWipeOutlines,1
;   avoidCrossingOutline,0
;   maxMovementDetourFactor,3
;   toolChangeRetractionDistance,12
;   toolChangeExtraRestartDistance,-0.5
;   toolChangeRetractionSpeed,600
;   allowThinWallGapFill,1
;   thinWallAllowedOverlapPercentage,10
;   horizontalSizeCompensation,0
G90
M82
M107
M140 S105
M104 S230 T0
M104 S0 T1
M146 r255 g0 b0 ; Set lights to red while preheating
M907 X100 Y100 Z40 A100 B100 ; Set motor current
M132 X Y Z A B ; Recall home offsets
M612 X34.5 Y0.0 ; Set toolhead offsets
M108 T0 ; Change to right extruder
G28 ; Home axes
G1 Z100 F3300 ; Lower Z
G1 X-110.5 Y-74 F6000 ; Move to wait position
M7 ; Wait for bed to stabilize
M6 T0 ; Wait for right extruder to reach target temp
G1 X-100 Y-74 F9000 ; Move to front left corner of bed
G1 Z0.3 F6000 ; Move down to purge
G92 E0 ; Zero extruders
G1 X90 Y-74 E24 F2000 ; Extrude a line of filament across the front edge of the bed
G1 X100 Y-74 F180 ; Wait for ooze
G1 X110 Y-74 F5000 ; Fast wipe
G1 Z1 F100 ; Lift
G92 E0 ; Zero extruders again
M146 r255 g255 b255 ; Turn lights on for print
G1 Z0.5 F3300 ; Position nozzle
G1 E-1.0000 F1200
G1 Z0.450 F1200
; layer 1, Z = 0.45
M108 T0
; tool H0.500 W1.000
; raft
G1 X8.033 Y4.849 F4200
G1 E0.0000 F360
G1 X-8.484 Y4.860 E3.4335 F315
G1 X-8.371 Y6.598 E3.7956
G1 X-8.366 Y6.747 E3.8265
G1 X-8.366 Y7.900 E4.0662
G1 X-5.819 Y7.900 E4.5958
G1 X-5.519 Y7.600 E4.6840
G1 X7.783 Y7.600 E7.4491
G1 X8.083 Y7.900 E7.5373
G1 X9.434 Y7.900 E7.8181
G1 X9.434 Y4.916 E8.4383
G1 X12.128 Y2.222 E9.2305
G1 X19.439 Y2.222 E10.7502
G1 X22.134 Y4.916 E11.5424
G1 X22.134 Y16.405 E13.9307
G1 X19.439 Y19.100 E14.7228
G1 X-18.372 Y19.100 E22.5828
G1 X-21.066 Y16.405 E23.3749
G1 X-21.066 Y6.968 E25.3367
G1 X-22.137 Y-9.805 E28.8305
G1 X-22.129 Y-10.192 E28.9110
G1 X-22.018 Y-11.246 E29.1314
G1 X-21.945 Y-11.629 E29.2123
G1 X-21.661 Y-12.640 E29.4306
G1 X-21.541 Y-12.969 E29.5034
G1 X-21.194 Y-13.734 E29.6780
G1 X-21.075 Y-13.961 E29.7312
G1 X-20.269 Y-15.315 E30.0590
G1 X-20.052 Y-15.620 E30.1368
G1 X-19.353 Y-16.450 E30.3623
G1 X-19.069 Y-16.733 E30.4457
G1 X-18.226 Y-17.438 E30.6740
G1 X-17.897 Y-17.668 E30.7575
G1 X-16.942 Y-18.216 E30.9864
G1 X-16.578 Y-18.386 E31.0700
G1 X-15.591 Y-18.743 E31.2880
G1 X-15.302 Y-18.826 E31.3506
G1 X-14.697 Y-18.959 E31.4794
G1 X-14.460 Y-18.998 E31.5293
G1 X-13.734 Y-19.080 E31.6813
G1 X-13.480 Y-19.094 E31.7342
G1 X-7.658 Y-19.103 E32.9443
G1 X-4.959 Y-16.407 E33.7373
G1 X-4.959 Y-10.595 E34.9456
G1 X-7.653 Y-7.900 E35.7378
G1 X-8.959 Y-7.900 E36.0091
G1 X-8.959 Y-6.350 E36.3313
G1 X8.031 Y-6.350 E39.8631
G1 X10.726 Y-3.655 E40.6553
G1 X10.726 Y2.154 E41.8630
G1 X8.033 Y4.849 E42.6548
G1 X10.910 Y4.571 F4200
G1 X20.658 Y4.571 E44.6811 F315
G1 X21.334 Y5.248 E44.8799
G1 X21.334 Y6.857 E45.2145
G1 X10.234 Y6.857 E47.5219
G1 X19.122 Y18.286 F4200
G1 X-18.055 Y18.286 E55.2500 F315
G1 X-20.266 Y16.074 E55.9002
G1 X-20.266 Y16.000 E55.9156
G1 X21.334 Y16.000 E64.5632
G1 X21.334 Y13.714 E65.0383
G1 X-20.266 Y13.714 E73.6860
G1 X-20.266 Y11.429 E74.1611
G1 X21.334 Y11.429 E82.8087
G1 X21.334 Y9.143 E83.2839
G1 X-20.266 Y9.143 E91.9315
G1 X-20.266 Y6.943 E92.3888
G1 X-20.272 Y6.857 E92.4067
G1 X-9.166 Y6.857 E94.7152
G1 X-9.166 Y6.760 E94.7354
G1 X-9.170 Y6.637 E94.7610
G1 X-9.304 Y4.571 E95.1913
G1 X-20.418 Y4.571 E97.5015
G1 X-20.563 Y2.286 E97.9776
G1 X9.464 Y2.286 E104.2195
G1 X9.926 Y1.823 E104.3554
G1 X9.926 Y0.000 E104.7344
G1 X-20.709 Y0.000 E111.1027
G1 X-20.855 Y-2.286 E111.5788
G1 X9.926 Y-2.286 E117.9775
G1 X9.926 Y-3.324 E118.1933
G1 X8.678 Y-4.571 E118.5600
G1 X-21.001 Y-4.571 E124.7296
G1 X-21.147 Y-6.857 E125.2058
G1 X-9.759 Y-6.857 E127.5731
G1 X-9.759 Y-8.700 E127.9562
G1 X-7.985 Y-8.700 E128.3249
G1 X-7.542 Y-9.143 E128.4551
G1 X-21.293 Y-9.143 E131.3136
G1 X-21.336 Y-9.822 E131.4551
G1 X-21.330 Y-10.142 E131.5216
G1 X-21.226 Y-11.129 E131.7279
G1 X-21.169 Y-11.429 E131.7913
G1 X-5.759 Y-11.429 E134.9947
G1 X-5.759 Y-13.714 E135.4698
G1 X-20.291 Y-13.714 E138.4907
G1 X-19.598 Y-14.878 E138.7722
G1 X-19.419 Y-15.130 E138.8365
G1 X-18.764 Y-15.908 E139.0479
G1 X-18.671 Y-16.000 E139.0751
G1 X-5.759 Y-16.000 E141.7592
G1 X-5.759 Y-16.076 E141.7749
G1 X-7.972 Y-18.286 E142.4251
G1 X-13.612 Y-18.286 E143.5974
G1 E142.5974 F1200
; layer 2, Z = 0.95
; tool H0.500 W0.800
; raft
G1 X-13.734 Y-19.080 F4200
G1 Z0.950 F1200
G1 E143.5974 F1200
G1 X-13.480 Y-19.094 E143.6398 F900
G1 X-7.658 Y-19.103 E144.6079
G1 X-4.959 Y-16.407 E145.2423
G1 X-4.959 Y-10.595 E146.2089
G1 X-7.653 Y-7.900 E146.8426
G1 X-8.959 Y-7.900 E147.0597
G1 X-8.959 Y-6.350 E147.3175
G1 X8.031 Y-6.350 E150.1429
G1 X10.726 Y-3.655 E150.7767
G1 X10.726 Y2.154 E151.7428
G1 X8.033 Y4.849 E152.3763
G1 X-8.484 Y4.860 E155.1231
G1 X-8.371 Y6.598 E155.4127
G1 X-8.366 Y6.747 E155.4375
G1 X-8.366 Y7.900 E155.6292
G1 X-5.819 Y7.900 E156.0529
G1 X-5.519 Y7.600 E156.1234
G1 X7.783 Y7.600 E158.3355
G1 X8.083 Y7.900 E158.4061
G1 X9.434 Y7.900 E158.6307
G1 X9.434 Y4.916 E159.1269
G1 X12.128 Y2.222 E159.7606
G1 X19.439 Y2.222 E160.9764
G1 X22.134 Y4.916 E161.6102
G1 X22.134 Y16.405 E163.5208
G1 X19.439 Y19.100 E164.1545
G1 X-18.372 Y19.100 E170.4425
G1 X-21.066 Y16.405 E171.0762
G1 X-21.066 Y6.968 E172.6456
G1 X-22.137 Y-9.805 E175.4407
G1 X-22.129 Y-10.192 E175.5051
G1 X-22.018 Y-11.246 E175.6814
G1 X-21.945 Y-11.629 E175.7461
G1 X-21.661 Y-12.640 E175.9208
G1 X-21.541 Y-12.969 E175.9790
G1 X-21.194 Y-13.734 E176.1187
G1 X-21.075 Y-13.961 E176.1613
G1 X-20.269 Y-15.315 E176.4234
G1 X-20.052 Y-15.620 E176.4857
G1 X-19.353 Y-16.450 E176.6661
G1 X-19.069 Y-16.733 E176.7328
G1 X-18.226 Y-17.438 E176.9154
G1 X-17.897 Y-17.668 E176.9823
G1 X-16.942 Y-18.216 E177.1653
G1 X-16.578 Y-18.386 E177.2322
G1 X-15.591 Y-18.743 E177.4067
G1 X-15.302 Y-18.826 E177.4567
G1 X-14.697 Y-18.959 E177.5598
G1 X-14.460 Y-18.998 E177.5997
G1 X-13.734 Y-19.080 E177.7213
G1 X-13.612 Y-18.286 F4200
G1 X-7.972 Y-18.286 E178.6591 F900
G1 X-5.759 Y-16.076 E179.1793
G1 X-5.759 Y-16.000 E179.1919
G1 X-18.671 Y-16.000 E181.3392
G1 X-18.764 Y-15.908 E181.3609
G1 X-19.419 Y-15.130 E181.5300
G1 X-19.598 Y-14.878 E181.5815
G1 X-20.291 Y-13.714 E181.8067
G1 X-5.759 Y-13.714 E184.2234
G1 X-5.759 Y-11.429 E184.6035
G1 X-21.169 Y-11.429 E187.1662
G1 X-21.226 Y-11.129 E187.2169
G1 X-21.330 Y-10.142 E187.3820
G1 X-21.336 Y-9.822 E187.4352
G1 X-21.293 Y-9.143 E187.5484
G1 X-7.542 Y-9.143 E189.8351
G1 X-7.985 Y-8.700 E189.9393
G1 X-9.759 Y-8.700 E190.2343
G1 X-9.759 Y-6.857 E190.5408
G1 X-21.147 Y-6.857 E192.4346
G1 X-21.001 Y-4.571 E192.8155
G1 X8.678 Y-4.571 E197.7512
G1 X9.926 Y-3.324 E198.0446
G1 X9.926 Y-2.286 E198.2173
G1 X-20.855 Y-2.286 E203.3362
G1 X-20.709 Y0.000 E203.7171
G1 X9.926 Y0.000 E208.8117
G1 X9.926 Y1.823 E209.1149
G1 X9.464 Y2.286 E209.2236
G1 X-20.563 Y2.286 E214.2171
G1 X-20.418 Y4.571 E214.5980
G1 X-9.304 Y4.571 E216.4462
G1 X-9.170 Y6.637 E216.7905
G1 X-9.166 Y6.760 E216.8109
G1 X-9.166 Y6.857 E216.8270
G1 X-20.272 Y6.857 E218.6739
G1 X-20.266 Y6.943 E218.6882
G1 X-20.266 Y9.143 E219.0540
G1 X21.334 Y9.143 E225.9721
G1 X21.334 Y11.429 E226.3523
G1 X-20.266 Y11.429 E233.2704
G1 X-20.266 Y13.714 E233.6505
G1 X21.334 Y13.714 E240.5686
G1 X21.334 Y16.000 E240.9487
G1 X-20.266 Y16.000 E247.8668
G1 X-20.266 Y16.074 E247.8791
G1 X-18.055 Y18.286 E248.3993
G1 X19.122 Y18.286 E254.5817
G1 X10.234 Y6.857 F4200
G1 X21.334 Y6.857 E256.4277 F900
G1 X21.334 Y5.248 E256.6953
G1 X20.658 Y4.571 E256.8544
G1 X10.910 Y4.571 E258.4754
G1 E257.4754 F1200
; layer 3, Z = 1.32647
; tool H0.376 W0.640
; raft
G1 X10.240 Y-4.254 F4200
G1 Z1.326 F1200
G1 E258.4754 F1200
G1 X10.240 Y2.754 E259.1774 F1800
G1 X8.960 Y4.035 E259.3588
G1 X8.960 Y-5.534 E260.3173
G1 X8.064 Y-6.430 E260.4442
G1 X7.680 Y-6.430 E260.4827
G1 X7.680 Y4.929 E261.6206
G1 X6.400 Y4.930 E261.7488
G1 X6.400 Y-6.430 E262.8867
G1 X5.120 Y-6.430 E263.0149
G1 X5.120 Y4.931 E264.1530
G1 X3.840 Y4.932 E264.2812
G1 X3.840 Y-6.430 E265.4193
G1 X2.560 Y-6.430 E265.5475
G1 X2.560 Y4.933 E266.6857
G1 X1.280 Y4.933 E266.8139
G1 X1.280 Y-6.430 E267.9522
G1 X0.000 Y-6.430 E268.0804
G1 X0.000 Y4.934 E269.2188
G1 X-1.280 Y4.935 E269.3470
G1 X-1.280 Y-6.430 E270.4855
G1 X-2.560 Y-6.430 E270.6137
G1 X-2.560 Y4.936 E271.7523
G1 X-3.840 Y4.937 E271.8805
G1 X-3.840 Y-6.430 E273.0192
G1 X-5.120 Y-6.430 E273.1474
G1 X-5.120 Y4.938 E274.2861
G1 X-6.400 Y4.939 E274.4143
G1 X-6.400 Y-6.430 E275.5532
G1 X-7.680 Y-6.430 E275.6814
G1 X-7.680 Y4.940 E276.8203
G1 X-8.398 Y4.940 E276.8923
G1 X-8.291 Y6.594 E277.0583
G1 X-8.286 Y6.746 E277.0735
G1 X-8.286 Y7.820 E277.1811
G1 X-7.680 Y7.820 E277.2418
G1 X-7.680 Y19.180 E278.3798
G1 X-6.400 Y19.180 E278.5080
G1 X-6.400 Y7.820 E279.6460
G1 X-5.852 Y7.820 E279.7009
G1 X-5.552 Y7.520 E279.7434
G1 X-5.120 Y7.520 E279.7866
G1 X-5.120 Y19.180 E280.9546
G1 X-3.840 Y19.180 E281.0828
G1 X-3.840 Y7.520 E282.2508
G1 X-2.560 Y7.520 E282.3791
G1 X-2.560 Y19.180 E283.5471
G1 X-1.280 Y19.180 E283.6753
G1 X-1.280 Y7.520 E284.8433
G1 X0.000 Y7.520 E284.9715
G1 X0.000 Y19.180 E286.1395
G1 X1.280 Y19.180 E286.2677
G1 X1.280 Y7.520 E287.4357
G1 X2.560 Y7.520 E287.5640
G1 X2.560 Y19.180 E288.7320
G1 X3.840 Y19.180 E288.8602
G1 X3.840 Y7.520 E290.0282
G1 X5.120 Y7.520 E290.1564
G1 X5.120 Y19.180 E291.3244
G1 X6.400 Y19.180 E291.4526
G1 X6.400 Y7.520 E292.6206
G1 X7.680 Y7.520 E292.7488
G1 X7.680 Y19.180 E293.9168
G1 X8.960 Y19.180 E294.0451
G1 X8.960 Y7.820 E295.1830
G1 X9.354 Y7.820 E295.2224
G1 X9.354 Y4.883 E295.5166
G1 X10.240 Y3.997 E295.6422
G1 X10.240 Y19.180 E297.1631
G1 X11.520 Y19.180 E297.2913
G1 X11.520 Y2.717 E298.9405
G1 X12.095 Y2.142 E299.0220
G1 X12.800 Y2.142 E299.0926
G1 X12.800 Y19.180 E300.7993
G1 X14.080 Y19.180 E300.9276
G1 X14.080 Y2.142 E302.6343
G1 X15.360 Y2.142 E302.7625
